img/telegram.svg

<svg width="20" height="18" viewBox="0 0 20 18" fill="none" xmlns="http://www.w3.org/2000/svg">
<path d="M19.7294 1.63866L16.7501 16.9134C16.5253 17.9915 15.9391 18.2598 15.1062 17.7519L10.5667 14.1153L8.37633 16.4056C8.13393 16.6691 7.93119 16.8895 7.46403 16.8895L7.79016 11.8634L16.2036 3.59832C16.5694 3.24376 16.1242 3.04732 15.635 3.40188L5.23397 10.5218L0.756221 8.99816C-0.217778 8.66755 -0.235407 7.93927 0.958953 7.43139L18.4733 0.0958553C19.2842 -0.234747 19.9938 0.2923 19.7294 1.63866Z" fill="#2C75B9" fill-opacity="0.3"/>
</svg>

<svg width="20" height="18" fill="none" xmlns="http://www.w3.org/2000/svg"><path d="m19.73 1.639-2.98 15.274c-.225 1.078-.81 1.347-1.644.839l-4.54-3.637-2.19 2.29c-.242.264-.445.485-.912.485l.326-5.027 8.414-8.265c.365-.354-.08-.55-.569-.196l-10.401 7.12L.756 8.998c-.974-.33-.991-1.059.203-1.567L18.473.096c.811-.33 1.52.196 1.256 1.543Z" fill="#2C75B9" fill-opacity=".3"/></svg>
